X: 475
T: Bûselik Peşrev
C: Nikolâki
O: Turkey
F: http://compmusic.upf.edu/node/140
N: buselik--pesrev--muhammes----nikolaki
N: makam= buselik
N: form= pesrev
N: usul= muhammes = 32/4
M: 32/4
L: 1/16
K: C    
Q: 1/4=88
%%MIDI tuningsystem comma53
B4 c8 d2 c2  | B2 c2 B2 A2 B3/2 c/ B A G4  | \
w:  1. HANE  |   | 
A2 B2 A2 G2 A4 B4  | c2 B2 c2 B2 A2 ^G2 A4  | 
w:   |   | 
A4 B2 c2 d4 e4  | d2 e f e2 d2 c2 B2 {d}c4  | \
w:   |   | 
c2 z2 d2 c2 d4 e2 f2  | d4 e8 z4  | 
w:   |   | 
.e2 .f2 .e2 .f2 .a2 .g2 .f2 .e2  | \
w:   | 
f2 {g}f e d2 e2 d4 e2 f2  | e2 d2 c2 B2 {d}c4 B2 c2  | 
w:   |   | 
d8 _3/4e3 d c4  | ^f2 a2 g2 f2 _3/4e2 {f}e d c2 d2  | \
w:   |   | 
B4 c8 d2 c2  | B2 c2 B2 A2 B2 {c}B A ^G2 A2  | 
w:   |   | 
B2 c2 B2 c2 d4 e2 f2  | d3/2 e/ d2 e4 d2 a2 g2 f2  | \
w:   |  TESLİM  | 
{g}f2 e4 d2 e2 d2 c2 B2  | 
w:   | 
{d}c4 B2 c2 e2 d2 c2 B2  | B2 {c}B A G2 A2 G4 z4  | \
w:   |   | 
A2 B2 A2 B2 c2 d2 e2 f2  | 
w:   | 
d2 f2 e2 d2 {d}c2 B2 A4  | B2 c d c2 B2 B2 A B A2 ^G2  | \
w:   |   | 
A6 c2 B2 d2 c2 z2  | 
w:  2. HANEYE  | 
d3 c B2 d2 c6 G2  | A6 G/ F/ E/ F/ G6 E2  | \
w:  2. HANE  |   | 
F3/2 E/ F G .F2 .G2 F3 E ^D2 F E  | 
w:   | 
{F}E6 ^G2 A4 z4  | E4 F2 E2 F4 ^G2 F2  | \
w:   |   | 
A4 ^G2 A2 {d}c4 B2 A2  | B2 c d c2 B2 B2 A B A2 ^G2  | 
w:   |   | 
A6 c2 B c d B c4  | C12 B2 c2  | d8 _3/4e3 d c4  | \
w:   |   |   | 
d2 _7/8e ^f _3/4e2 d2 d c2 d c2 B2  | 
w:   | 
c6 ^d2 e4 z4  | f2 {^g}f e ^d2 f2 e4 f2 ^f2  | \
w:   |   | 
g4 ^f2 a2 {a}g4 =f4  | e4 c2 e2 d4 B2 d2  | 
w:   |   | 
c6 d2 e4 z4  | d3/2 e/ d2 e4 d2 a2 g2 f2  | \
w:   |  TESLİM  | 
{g}f2 e4 d2 e2 d2 c2 B2  | {d}c4 B2 c2 e2 d2 c2 B2  | 
w:   |   | 
B2 {c}B A G2 A2 G4 z4  | A2 B2 A2 B2 c2 d2 e2 f2  | \
w:   |   | 
d2 f2 e2 d2 {d}c2 B2 A4  | 
w:   | 
B2 c d c2 B2 B2 A B A2 ^G2  | A6 ^g2 a4 z4  | \
w:   |  3. HANEYE  | 
^g4 a8 g2 f2  | e2 d2 c2 B2 A A B c d e f ^g  | 
w:  3. HANE  |   | 
a2 ^g2 a2 b2 a2 g2 f2 e2  | f2 {^g}f e d2 {e}^c2 d4 A4  | \
w:   |   | 
e2 d2 ^c2 B2 c2 d2 e2 f2  | 
w:   | 
^g4 f2 e2 a2 g2 {b}a2 g2  | ^g6 f2 f2 e2 {g}f2 e2  | \
w:   |   | 
e6 g2 ^3/4f2 g2 a2 z2  | g4 a8 g2 ^3/4f2  | 
w:   |   | 
a2 g2 a2 g2 ^3/4f3 e d4  | e4 d2 e2 ^3/4f4 e2 f2  | \
w:   |   | 
g2 a2 g2 ^3/4f2 g3 ^2/4f e4  | d2 e4 a2 g2 f2 e2 d2  | 
w:   |   | 
e2 f2 e2 d2 c2 B2 A2 B2  | G4 d2 c2 B2 c2 B2 A2  | \
w:   |   | 
c2 B2 A2 ^G2 A4 z4  | 
w:   | 
d3/2 e/ d2 e4 d2 a2 g2 f2  | {g}f2 e4 d2 e2 d2 c2 B2  | \
w:  TESLİM  |   | 
{d}c4 B2 c2 e2 d2 c2 B2  | 
w:   | 
B2 {c}B A G2 A2 G4 z4  | A2 B2 A2 B2 c2 d2 e2 f2  | \
w:   |   | 
d2 f2 e2 d2 {d}c2 B2 A4  | 
w:   | 
B2 c d c2 B2 B2 A B A2 ^G2  | A12 z4  | |


